logo-txt.svg

<svg width="9939" height="2030" viewBox="0 0 9939 2030" fill="none" xmlns="http://www.w3.org/2000/svg"><path d="M822.673 42.185c-3.321.246-14.391.986-24.601 1.725-116.363 8.628-232.973 47.576-334.207 111.791-66.915 42.398-129.894 99.218-180.818 162.816-81.922 102.546-135.553 228.141-152.774 357.679-5.043 38.578-6.273 56.45-6.273 99.835 0 43.385 1.23 61.256 6.273 99.834C147.494 1005.4 201.125 1131 283.047 1233.54c50.924 63.6 113.903 120.42 180.818 162.82 89.549 56.82 190.044 93.55 293 107.35 38.501 5.06 56.337 6.29 99.635 6.29s61.134-1.23 99.635-6.29c102.955-13.8 203.455-50.53 292.995-107.35 66.92-42.4 129.9-99.22 180.82-162.82 81.93-102.54 135.56-228.14 152.78-357.675 5.04-38.578 6.27-56.449 6.27-99.834 0-43.385-1.23-61.257-6.27-99.835-17.22-129.538-70.85-255.133-152.78-357.679-34.56-43.261-76.26-84.798-119.44-119.185-89.17-70.994-197.54-121.157-310.09-143.59-46.13-9.243-84.016-13.064-134.695-13.557-20.296-.247-39.607-.247-43.052 0Zm86.105 241.452c54.491 5.793 104.682 19.474 154.122 42.152l15.01 6.902v444.572h-93.484V390.62l-15.007-4.437c-61.872-18.488-135.183-20.707-200.253-6.163-31.736 7.026-74.911 23.418-103.94 39.441-117.84 64.954-194.595 182.044-207.265 315.896-1.845 18.365-1.722 58.545 0 75.801 7.995 77.895 37.886 151.97 85.981 212.492l9.964 12.44-.246 61.26-.369 61.13-8.611-7.15c-104.678-88.12-166.796-209.525-176.636-345.719-1.599-21.939-.861-65.817 1.353-84.428 9.717-82.209 35.794-154.682 79.585-220.745 56.459-85.414 140.718-152.587 236.048-188.33 44.774-16.762 88.933-26.499 138.258-30.32 18.574-1.356 63.84-.493 85.49 1.849ZM1171.4 398.755c31.98 26.376 67.65 66.063 90.65 100.574 58.06 87.386 86.47 185.372 83.64 289.027-.73 27.978-1.72 39.071-5.9 64.091-11.69 71.117-36.66 135.085-75.65 194.123-47.11 71.12-113.53 129.91-190.53 168.61-73.931 37.1-159.174 54.97-240.85 50.41-68.883-3.94-124.728-17.5-182.541-44.37l-15.13-7.03V769.868h93.485v386.762l8.364 2.47c39.485 11.96 76.633 17.38 117.102 17.5 45.389 0 82.783-5.79 124.236-19.23 147.114-47.57 254.004-175.138 274.794-328.341 9.47-69.268 0-143.342-26.57-207.68-13.65-32.909-35.92-70.87-57.57-97.863l-9.84-12.202v-61.256c0-58.176.13-61.257 2.22-59.655 1.11.986 5.66 4.684 10.09 8.382ZM903.242 773.566v191.041h-93.484V582.524h93.484v191.042Z" fill="red"/><g filter="url(#a)"><path d="M2205 1027.76c0 44.8 13.44 87.68 40.32 128.64 26.88 40.96 62.08 74.24 105.6 99.84 44.8 25.6 93.44 38.4 145.92 38.4 57.6 0 108.8-12.8 153.6-38.4 44.8-25.6 80-58.88 105.6-99.84 26.88-40.96 40.32-83.84 40.32-128.64V136.88h274.56v896.64c0 103.68-25.6 195.84-76.8 276.48-51.2 79.36-120.32 142.08-207.36 188.16-87.04 44.8-183.68 67.2-289.92 67.2-104.96 0-200.96-22.4-288-67.2-85.76-46.08-154.24-108.8-205.44-188.16-51.2-80.64-76.8-172.8-76.8-276.48V136.88H2205v890.88Zm1430.13 539.52c-69.12 0-133.76-12.16-193.92-36.48-58.88-24.32-108.8-58.24-149.76-101.76l111.36-147.84c40.96 37.12 78.72 64 113.28 80.64 35.84 15.36 67.84 23.04 96 23.04 21.76 0 40.96-1.92 57.6-5.76 17.92-5.12 32-12.16 42.24-21.12 10.24-10.24 15.36-23.04 15.36-38.4 0-21.76-8.96-39.04-26.88-51.84-16.64-12.8-38.4-23.04-65.28-30.72-26.88-8.96-55.68-17.92-86.4-26.88-76.8-24.32-132.48-59.52-167.04-105.6-33.28-47.36-49.92-98.56-49.92-153.6 0-42.24 10.88-84.48 32.64-126.72 23.04-43.52 58.88-79.36 107.52-107.52 49.92-29.44 113.92-44.16 192-44.16 70.4 0 129.92 7.04 178.56 21.12 48.64 14.08 94.72 37.12 138.24 69.12l-101.76 157.44c-24.32-19.2-51.84-35.2-82.56-48-29.44-14.08-56.96-21.76-82.56-23.04-23.04-1.28-42.88 1.28-59.52 7.68-15.36 6.4-27.52 14.72-36.48 24.96-8.96 10.24-13.44 21.12-13.44 32.64-1.28 24.32 7.68 43.52 26.88 57.6 20.48 14.08 46.08 24.96 76.8 32.64s60.8 16.64 90.24 26.88c40.96 12.8 76.16 30.08 105.6 51.84 29.44 21.76 51.84 48 67.2 78.72 16.64 29.44 24.96 65.28 24.96 107.52 0 51.2-13.44 99.84-40.32 145.92-25.6 44.8-65.28 81.28-119.04 109.44-52.48 28.16-119.68 42.24-201.6 42.24Zm998.91 5.76c-102.4 0-189.44-19.2-261.12-57.6-70.4-38.4-124.16-91.52-161.28-159.36-37.12-67.84-55.68-145.92-55.68-234.24 0-84.48 21.76-160.64 65.28-228.48 43.52-67.84 101.76-121.6 174.72-161.28 72.96-40.96 154.24-61.44 243.84-61.44 120.32 0 218.88 35.2 295.68 105.6 78.08 69.12 128.64 169.6 151.68 301.44l-652.8 207.36-59.52-145.92 472.32-159.36-55.68 24.96c-10.24-33.28-28.8-62.08-55.68-86.4-25.6-25.6-64.64-38.4-117.12-38.4-39.68 0-74.88 9.6-105.6 28.8-29.44 17.92-52.48 44.16-69.12 78.72-15.36 33.28-23.04 72.96-23.04 119.04 0 52.48 9.6 96.64 28.8 132.48 19.2 34.56 45.44 60.8 78.72 78.72s70.4 26.88 111.36 26.88c29.44 0 57.6-5.12 84.48-15.36 28.16-10.24 55.68-23.68 82.56-40.32l119.04 199.68c-44.8 25.6-93.44 46.08-145.92 61.44-51.2 15.36-99.84 23.04-145.92 23.04Zm890.37-862.08 24.96 230.4-5.76-34.56c24.32-49.92 57.6-92.16 99.84-126.72 42.24-35.84 83.84-63.36 124.8-82.56 42.24-19.2 74.24-28.8 96-28.8l-13.44 268.8c-62.72-7.68-116.48 2.56-161.28 30.72s-79.36 65.28-103.68 111.36c-24.32 46.08-36.48 93.44-36.48 142.08V1550h-266.88V710.96h241.92Zm359.27 700.8c0-39.68 14.08-72.96 42.24-99.84 29.44-26.88 61.44-40.32 96-40.32 32 0 62.08 13.44 90.24 40.32 29.44 26.88 44.16 60.16 44.16 99.84 0 42.24-14.72 76.16-44.16 101.76-28.16 24.32-58.24 36.48-90.24 36.48-34.56 0-66.56-12.16-96-36.48-28.16-25.6-42.24-59.52-42.24-101.76Zm291.97-1274.88h952.32v268.8h-343.68V1550h-278.4V405.68h-330.24v-268.8Zm1337 1436.16c-78.08 0-149.12-15.36-213.12-46.08-62.72-32-112.64-80.64-149.76-145.92-37.12-65.28-55.68-148.48-55.68-249.6 0-94.72 19.2-176.64 57.6-245.76 38.4-69.12 88.96-122.24 151.67-159.36 62.73-38.4 129.29-57.6 199.69-57.6 83.2 0 145.92 14.08 188.16 42.24 43.52 26.88 79.36 56.96 107.52 90.24l-11.52 32.64 24.96-122.88h249.6V1550h-268.8v-182.4l21.12 57.6c-2.56 0-10.24 7.68-23.04 23.04-12.8 14.08-32 31.36-57.6 51.84-24.32 19.2-55.04 35.84-92.16 49.92-35.84 15.36-78.72 23.04-128.64 23.04Zm76.8-218.88c32 0 60.8-4.48 86.4-13.44 25.6-10.24 48-24.32 67.2-42.24 19.2-19.2 35.84-42.88 49.92-71.04V1022c-10.24-28.16-25.6-51.84-46.08-71.04-20.48-20.48-44.8-35.84-72.96-46.08-28.16-11.52-59.52-17.28-94.08-17.28-38.4 0-74.24 10.24-107.52 30.72-32 19.2-57.6 46.08-76.8 80.64-19.2 34.56-28.8 74.24-28.8 119.04 0 44.8 10.24 85.12 30.72 120.96 20.48 35.84 47.36 64 80.64 84.48 34.56 20.48 71.68 30.72 111.36 30.72ZM8718.9 977.84l159.36-266.88h266.88l-332.16 460.8-94.08-193.92ZM9191.22 1550h-324.48L8219.7 710.96h330.24L9191.22 1550Zm-506.88-268.8L8496.18 1550H8229.3l332.16-449.28 122.88 180.48Z" fill="red"/></g><defs><filter id="a" x="1922.6" y="136.88" width="7272.62" height="1444.16" filterUnits="userSpaceOnUse" color-interpolation-filters="sRGB"><feFlood flood-opacity="0" result="BackgroundImageFix"/><feColorMatrix in="SourceAlpha" values="0 0 0 0 0 0 0 0 0 0 0 0 0 0 0 0 0 0 127 0" result="hardAlpha"/><feOffset dy="4"/><feGaussianBlur stdDeviation="2"/><feComposite in2="hardAlpha" operator="out"/><feColorMatrix values="0 0 0 0 0 0 0 0 0 0 0 0 0 0 0 0 0 0 0.25 0"/><feBlend in2="BackgroundImageFix" result="effect1_dropShadow_1_5"/><feBlend in="SourceGraphic" in2="effect1_dropShadow_1_5" result="shape"/></filter></defs></svg>

<svg width="9939" height="2030" viewBox="0 0 9939 2030" fill="none" xmlns="http://www.w3.org/2000/svg">
<path d="M822.673 42.1849C819.352 42.4314 808.282 43.1709 798.072 43.9104C681.709 52.5381 565.099 91.4859 463.865 155.701C396.95 198.099 333.971 254.919 283.047 318.517C201.125 421.063 147.494 546.658 130.273 676.196C125.23 714.774 124 732.646 124 776.031C124 819.416 125.23 837.287 130.273 875.865C147.494 1005.4 201.125 1131 283.047 1233.54C333.971 1297.14 396.95 1353.96 463.865 1396.36C553.414 1453.18 653.909 1489.91 756.865 1503.71C795.366 1508.77 813.202 1510 856.5 1510C899.798 1510 917.634 1508.77 956.135 1503.71C1059.09 1489.91 1159.59 1453.18 1249.13 1396.36C1316.05 1353.96 1379.03 1297.14 1429.95 1233.54C1511.88 1131 1565.51 1005.4 1582.73 875.865C1587.77 837.287 1589 819.416 1589 776.031C1589 732.646 1587.77 714.774 1582.73 676.196C1565.51 546.658 1511.88 421.063 1429.95 318.517C1395.39 275.256 1353.69 233.719 1310.51 199.332C1221.34 128.338 1112.97 78.1746 1000.42 55.7427C954.29 46.4987 916.404 42.6779 865.725 42.1849C845.429 41.9384 826.118 41.9384 822.673 42.1849ZM908.778 283.637C963.269 289.43 1013.46 303.111 1062.9 325.789L1077.91 332.691V777.263H984.426V390.62L969.419 386.183C907.547 367.695 834.236 365.476 769.166 380.02C737.43 387.046 694.255 403.438 665.226 419.461C547.386 484.415 470.631 601.505 457.961 735.357C456.116 753.722 456.239 793.902 457.961 811.158C465.956 889.053 495.847 963.128 543.942 1023.65L553.906 1036.09L553.66 1097.35L553.291 1158.48L544.68 1151.33C440.002 1063.21 377.884 941.805 368.044 805.611C366.445 783.672 367.183 739.794 369.397 721.183C379.114 638.974 405.191 566.501 448.982 500.438C505.441 415.024 589.7 347.851 685.03 312.108C729.804 295.346 773.963 285.609 823.288 281.788C841.862 280.432 887.128 281.295 908.778 283.637ZM1171.4 398.755C1203.38 425.131 1239.05 464.818 1262.05 499.329C1320.11 586.715 1348.52 684.701 1345.69 788.356C1344.96 816.334 1343.97 827.427 1339.79 852.447C1328.1 923.564 1303.13 987.532 1264.14 1046.57C1217.03 1117.69 1150.61 1176.48 1073.61 1215.18C999.679 1252.28 914.436 1270.15 832.76 1265.59C763.877 1261.65 708.032 1248.09 650.219 1221.22L635.089 1214.19V769.868H728.574V1156.63L736.938 1159.1C776.423 1171.06 813.571 1176.48 854.04 1176.6C899.429 1176.6 936.823 1170.81 978.276 1157.37C1125.39 1109.8 1232.28 982.232 1253.07 829.029C1262.54 759.761 1253.07 685.687 1226.5 621.349C1212.85 588.44 1190.58 550.479 1168.93 523.486L1159.09 511.284V450.028C1159.09 391.852 1159.22 388.771 1161.31 390.373C1162.42 391.359 1166.97 395.057 1171.4 398.755V398.755ZM903.242 773.566V964.607H809.758V582.524H903.242V773.566Z" fill="#FF0000"/>
<g filter="url(#filter0_d_1_5)">
<path d="M2205 1027.76C2205 1072.56 2218.44 1115.44 2245.32 1156.4C2272.2 1197.36 2307.4 1230.64 2350.92 1256.24C2395.72 1281.84 2444.36 1294.64 2496.84 1294.64C2554.44 1294.64 2605.64 1281.84 2650.44 1256.24C2695.24 1230.64 2730.44 1197.36 2756.04 1156.4C2782.92 1115.44 2796.36 1072.56 2796.36 1027.76V136.88H3070.92V1033.52C3070.92 1137.2 3045.32 1229.36 2994.12 1310C2942.92 1389.36 2873.8 1452.08 2786.76 1498.16C2699.72 1542.96 2603.08 1565.36 2496.84 1565.36C2391.88 1565.36 2295.88 1542.96 2208.84 1498.16C2123.08 1452.08 2054.6 1389.36 2003.4 1310C1952.2 1229.36 1926.6 1137.2 1926.6 1033.52V136.88H2205V1027.76ZM3635.13 1567.28C3566.01 1567.28 3501.37 1555.12 3441.21 1530.8C3382.33 1506.48 3332.41 1472.56 3291.45 1429.04L3402.81 1281.2C3443.77 1318.32 3481.53 1345.2 3516.09 1361.84C3551.93 1377.2 3583.93 1384.88 3612.09 1384.88C3633.85 1384.88 3653.05 1382.96 3669.69 1379.12C3687.61 1374 3701.69 1366.96 3711.93 1358C3722.17 1347.76 3727.29 1334.96 3727.29 1319.6C3727.29 1297.84 3718.33 1280.56 3700.41 1267.76C3683.77 1254.96 3662.01 1244.72 3635.13 1237.04C3608.25 1228.08 3579.45 1219.12 3548.73 1210.16C3471.93 1185.84 3416.25 1150.64 3381.69 1104.56C3348.41 1057.2 3331.77 1006 3331.77 950.96C3331.77 908.72 3342.65 866.48 3364.41 824.24C3387.45 780.72 3423.29 744.88 3471.93 716.72C3521.85 687.28 3585.85 672.56 3663.93 672.56C3734.33 672.56 3793.85 679.6 3842.49 693.68C3891.13 707.76 3937.21 730.8 3980.73 762.8L3878.97 920.24C3854.65 901.04 3827.13 885.04 3796.41 872.24C3766.97 858.16 3739.45 850.48 3713.85 849.2C3690.81 847.92 3670.97 850.48 3654.33 856.88C3638.97 863.28 3626.81 871.6 3617.85 881.84C3608.89 892.08 3604.41 902.96 3604.41 914.48C3603.13 938.8 3612.09 958 3631.29 972.08C3651.77 986.16 3677.37 997.04 3708.09 1004.72C3738.81 1012.4 3768.89 1021.36 3798.33 1031.6C3839.29 1044.4 3874.49 1061.68 3903.93 1083.44C3933.37 1105.2 3955.77 1131.44 3971.13 1162.16C3987.77 1191.6 3996.09 1227.44 3996.09 1269.68C3996.09 1320.88 3982.65 1369.52 3955.77 1415.6C3930.17 1460.4 3890.49 1496.88 3836.73 1525.04C3784.25 1553.2 3717.05 1567.28 3635.13 1567.28ZM4634.04 1573.04C4531.64 1573.04 4444.6 1553.84 4372.92 1515.44C4302.52 1477.04 4248.76 1423.92 4211.64 1356.08C4174.52 1288.24 4155.96 1210.16 4155.96 1121.84C4155.96 1037.36 4177.72 961.2 4221.24 893.36C4264.76 825.52 4323 771.76 4395.96 732.08C4468.92 691.12 4550.2 670.64 4639.8 670.64C4760.12 670.64 4858.68 705.84 4935.48 776.24C5013.56 845.36 5064.12 945.84 5087.16 1077.68L4434.36 1285.04L4374.84 1139.12L4847.16 979.76L4791.48 1004.72C4781.24 971.44 4762.68 942.64 4735.8 918.32C4710.2 892.72 4671.16 879.92 4618.68 879.92C4579 879.92 4543.8 889.52 4513.08 908.72C4483.64 926.64 4460.6 952.88 4443.96 987.44C4428.6 1020.72 4420.92 1060.4 4420.92 1106.48C4420.92 1158.96 4430.52 1203.12 4449.72 1238.96C4468.92 1273.52 4495.16 1299.76 4528.44 1317.68C4561.72 1335.6 4598.84 1344.56 4639.8 1344.56C4669.24 1344.56 4697.4 1339.44 4724.28 1329.2C4752.44 1318.96 4779.96 1305.52 4806.84 1288.88L4925.88 1488.56C4881.08 1514.16 4832.44 1534.64 4779.96 1550C4728.76 1565.36 4680.12 1573.04 4634.04 1573.04ZM5524.41 710.96L5549.37 941.36L5543.61 906.8C5567.93 856.88 5601.21 814.64 5643.45 780.08C5685.69 744.24 5727.29 716.72 5768.25 697.52C5810.49 678.32 5842.49 668.72 5864.25 668.72L5850.81 937.52C5788.09 929.84 5734.33 940.08 5689.53 968.24C5644.73 996.4 5610.17 1033.52 5585.85 1079.6C5561.53 1125.68 5549.37 1173.04 5549.37 1221.68V1550H5282.49V710.96H5524.41ZM5883.68 1411.76C5883.68 1372.08 5897.76 1338.8 5925.92 1311.92C5955.36 1285.04 5987.36 1271.6 6021.92 1271.6C6053.92 1271.6 6084 1285.04 6112.16 1311.92C6141.6 1338.8 6156.32 1372.08 6156.32 1411.76C6156.32 1454 6141.6 1487.92 6112.16 1513.52C6084 1537.84 6053.92 1550 6021.92 1550C5987.36 1550 5955.36 1537.84 5925.92 1513.52C5897.76 1487.92 5883.68 1454 5883.68 1411.76ZM6175.65 136.88H7127.97V405.68H6784.29V1550H6505.89V405.68H6175.65V136.88ZM7512.65 1573.04C7434.57 1573.04 7363.53 1557.68 7299.53 1526.96C7236.81 1494.96 7186.89 1446.32 7149.77 1381.04C7112.65 1315.76 7094.09 1232.56 7094.09 1131.44C7094.09 1036.72 7113.29 954.8 7151.69 885.68C7190.09 816.56 7240.65 763.44 7303.36 726.32C7366.09 687.92 7432.65 668.72 7503.05 668.72C7586.25 668.72 7648.97 682.8 7691.21 710.96C7734.73 737.84 7770.57 767.92 7798.73 801.2L7787.21 833.84L7812.17 710.96H8061.77V1550H7792.97V1367.6L7814.09 1425.2C7811.53 1425.2 7803.85 1432.88 7791.05 1448.24C7778.25 1462.32 7759.05 1479.6 7733.45 1500.08C7709.13 1519.28 7678.41 1535.92 7641.29 1550C7605.45 1565.36 7562.57 1573.04 7512.65 1573.04ZM7589.45 1354.16C7621.45 1354.16 7650.25 1349.68 7675.85 1340.72C7701.45 1330.48 7723.85 1316.4 7743.05 1298.48C7762.25 1279.28 7778.89 1255.6 7792.97 1227.44V1022C7782.73 993.84 7767.37 970.16 7746.89 950.96C7726.41 930.48 7702.09 915.12 7673.93 904.88C7645.77 893.36 7614.41 887.6 7579.85 887.6C7541.45 887.6 7505.61 897.84 7472.33 918.32C7440.33 937.52 7414.73 964.4 7395.53 998.96C7376.33 1033.52 7366.73 1073.2 7366.73 1118C7366.73 1162.8 7376.97 1203.12 7397.45 1238.96C7417.93 1274.8 7444.81 1302.96 7478.09 1323.44C7512.65 1343.92 7549.77 1354.16 7589.45 1354.16ZM8718.9 977.84L8878.26 710.96H9145.14L8812.98 1171.76L8718.9 977.84ZM9191.22 1550H8866.74L8219.7 710.96H8549.94L9191.22 1550ZM8684.34 1281.2L8496.18 1550H8229.3L8561.46 1100.72L8684.34 1281.2Z" fill="#FF0000"/>
</g>
<defs>
<filter id="filter0_d_1_5" x="1922.6" y="136.88" width="7272.62" height="1444.16" filterUnits="userSpaceOnUse" color-interpolation-filters="sRGB">
<feFlood flood-opacity="0" result="BackgroundImageFix"/>
<feColorMatrix in="SourceAlpha" type="matrix" values="0 0 0 0 0 0 0 0 0 0 0 0 0 0 0 0 0 0 127 0" result="hardAlpha"/>
<feOffset dy="4"/>
<feGaussianBlur stdDeviation="2"/>
<feComposite in2="hardAlpha" operator="out"/>
<feColorMatrix type="matrix" values="0 0 0 0 0 0 0 0 0 0 0 0 0 0 0 0 0 0 0.25 0"/>
<feBlend mode="normal" in2="BackgroundImageFix" result="effect1_dropShadow_1_5"/>
<feBlend mode="normal" in="SourceGraphic" in2="effect1_dropShadow_1_5" result="shape"/>
</filter>
</defs>
</svg>
